assets/bank-tab/Asset/Increase Credit Limit.svg

<svg width="22" height="15" viewBox="0 0 22 15" fill="none" xmlns="http://www.w3.org/2000/svg">
<path d="M0.359468 13.7828C0.639532 14.8508 1.85003 15.2803 2.85025 14.8118L6.33425 13.1801C6.76642 12.9777 6.9814 12.4973 6.96316 12.0206C6.92947 11.1404 7.18522 10.2432 7.75273 9.48172C8.70293 8.2068 10.268 7.66002 11.7313 7.94609C12.1791 8.03364 12.6634 7.91222 12.936 7.54648L14.3929 5.5916C14.7229 5.1489 15.3494 5.05738 15.7923 5.38717C16.2352 5.71696 16.3268 6.34318 15.9968 6.78588L14.5399 8.74073C14.2673 9.10648 14.2895 9.6051 14.5016 10.0089C14.8203 10.6158 14.9763 11.2937 14.9595 11.9729C14.9477 12.4465 15.1653 12.921 15.5955 13.1199L19.1684 14.7719C20.1709 15.2354 21.3792 14.8 21.6541 13.7307C21.9454 12.5971 22.0549 11.4202 21.9743 10.244C21.848 8.40016 21.2588 6.61788 20.261 5.06188C19.2632 3.50589 17.8892 2.2264 16.2658 1.34167C14.6424 0.456935 12.8221 -0.00449244 10.9731 3.29686e-05C9.12406 0.00455838 7.30603 0.47489 5.68699 1.36756C4.06796 2.26023 2.70017 3.54643 1.71005 5.10729C0.719919 6.66815 0.1394 8.45329 0.0221462 10.2977C-0.0526485 11.4743 0.0625896 12.6507 0.359468 13.7828Z" fill="#785103"/>
<path d="M9.35672 10.6759C8.69683 11.5613 8.87997 12.8138 9.76576 13.4733C10.6516 14.1329 11.9046 13.9499 12.5645 13.0645C13.2243 12.1791 13.0412 10.9266 12.1554 10.2671C11.2696 9.60748 10.0166 9.79053 9.35672 10.6759Z" fill="#785103"/>
</svg>

<svg xmlns="http://www.w3.org/2000/svg" width="22" height="15" fill="none" viewBox="0 0 22 15"><path fill="#785103" d="M.36 13.783c.28 1.068 1.49 1.497 2.49 1.029l3.484-1.632c.432-.202.647-.683.63-1.16a4 4 0 0 1 4.768-4.075c.447.089.931-.033 1.204-.399l1.457-1.954a1 1 0 0 1 1.604 1.194L14.54 8.74c-.273.365-.25.864-.038 1.268a4 4 0 0 1 .457 1.964c-.011.473.206.948.636 1.147l3.573 1.652c1.003.463 2.211.028 2.486-1.041a10.99 10.99 0 0 0-5.388-12.39A11.004 11.004 0 0 0 1.71 5.108a11 11 0 0 0-1.35 8.676"/><path fill="#785103" d="M9.357 10.676a2 2 0 1 0 2.799-.409 2 2 0 0 0-2.8.409"/></svg>
